styles/5/Numix/24/places/custom-folder-music.svg

<?xml version="1.0" encoding="UTF-8" standalone="no"?>
<!-- Created with Inkscape (http://www.inkscape.org/) -->

<svg
   xmlns:dc="http://purl.org/dc/elements/1.1/"
   xmlns:cc="http://creativecommons.org/ns#"
   xmlns:rdf="http://www.w3.org/1999/02/22-rdf-syntax-ns#"
   xmlns:svg="http://www.w3.org/2000/svg"
   xmlns="http://www.w3.org/2000/svg"
   xmlns:xlink="http://www.w3.org/1999/xlink"
   xmlns:sodipodi="http://sodipodi.sourceforge.net/DTD/sodipodi-0.dtd"
   xmlns:inkscape="http://www.inkscape.org/namespaces/inkscape"
   width="24"
   height="24"
   id="svg2"
   version="1.1"
   inkscape:version="0.91 r"
   sodipodi:docname="custom-folder-music.svg">
  <defs
     id="defs4">
    <linearGradient
       id="linearGradient3886-9">
      <stop
         style="stop-color:#000000;stop-opacity:1;"
         offset="0"
         id="stop3888-1" />
      <stop
         style="stop-color:#000000;stop-opacity:0.19607843;"
         offset="1"
         id="stop3890-9" />
    </linearGradient>
    <radialGradient
       r="24"
       fy="40.5"
       fx="24"
       cy="40.5"
       cx="24"
       gradientTransform="matrix(0.625,0,0,0.10416663,-3,1044.1435)"
       gradientUnits="userSpaceOnUse"
       id="radialGradient3053"
       xlink:href="#linearGradient3886-9"
       inkscape:collect="always" />
  </defs>
  <sodipodi:namedview
     id="base"
     pagecolor="#ffffff"
     bordercolor="#666666"
     borderopacity="1.0"
     inkscape:pageopacity="0.0"
     inkscape:pageshadow="2"
     inkscape:zoom="35.255566"
     inkscape:cx="12.876238"
     inkscape:cy="10.643491"
     inkscape:document-units="px"
     inkscape:current-layer="layer1"
     showgrid="true"
     inkscape:window-width="1280"
     inkscape:window-height="998"
     inkscape:window-x="0"
     inkscape:window-y="0"
     inkscape:window-maximized="1">
    <inkscape:grid
       type="xygrid"
       id="grid2990"
       empspacing="5"
       visible="true"
       enabled="true"
       snapvisiblegridlinesonly="true" />
  </sodipodi:namedview>
  <metadata
     id="metadata7">
    <rdf:RDF>
      <cc:Work
         rdf:about="">
        <dc:format>image/svg+xml</dc:format>
        <dc:type
           rdf:resource="http://purl.org/dc/dcmitype/StillImage" />
        <dc:title />
      </cc:Work>
    </rdf:RDF>
  </metadata>
  <g
     inkscape:label="Body"
     inkscape:groupmode="layer"
     id="layer1"
     transform="translate(0,-1028.3622)">
    <path
       inkscape:connector-curvature="0"
       style="opacity:0.1;fill:url(#radialGradient3053);fill-opacity:1;stroke:none"
       d="m 12,1045.8622 c -4.9132745,0 -9.2639851,0.3915 -12,1 l 0,3 c 2.7360149,0.6085 7.0867255,1 12,1 4.913274,0 9.263985,-0.3915 12,-1 l 0,-3 c -2.736015,-0.6085 -7.086726,-1 -12,-1 z"
       id="path3868" />
    <rect
       style="fill:replacecolour2;fill-opacity:1;stroke:none"
       id="rect2987"
       width="22"
       height="16.00001"
       x="1"
       y="1033.3622"
       rx="2.3913043"
       ry="2.5" />
    <path
       style="opacity:0.2;fill:#ffffff;fill-opacity:1;stroke:none"
       d="M 3.3913043,1033.3622 C 2.0665217,1033.3622 1,1034.4772 1,1035.8622 l 0,1 c 0,-1.385 1.0665217,-2.5 2.3913043,-2.5 l 17.2173917,0 c 1.324782,0 2.391304,1.115 2.391304,2.5 l 0,-1 c 0,-1.385 -1.066522,-2.5 -2.391304,-2.5 l -17.2173917,0 z"
       id="rect3797"
       inkscape:connector-curvature="0" />
    <path
       style="fill:replacecolour1;fill-opacity:1;stroke:none"
       d="m 3.3913043,1037.3622 3.826087,0 c 5.2608697,-0.5 4.3043477,-6 7.6521737,-6 l 5.739131,0 c 1.324782,0 2.391304,1.115 2.391304,2.5 l 0,13 c 0,1.385 -1.066522,2.5 -2.391304,2.5 l -17.2173917,0 C 2.0665217,1049.3622 1,1048.2472 1,1046.8622 l 0,-7 c 0,-1.5 0.9565217,-2.5 2.3913043,-2.5 z"
       id="rect3776"
       inkscape:connector-curvature="0"
       sodipodi:nodetypes="cccsssssscc" />
    <path
       style="opacity:0.15;fill:#000000;fill-opacity:1;stroke:none"
       d="m 1,1045.8622 0,1 c 0,1.385 1.0665217,2.5 2.3913043,2.5 l 17.2173917,0 c 1.324782,0 2.391304,-1.115 2.391304,-2.5 l 0,-1 c 0,1.385 -1.066522,2.5 -2.391304,2.5 l -17.2173917,0 C 2.0665217,1048.3622 1,1047.2472 1,1045.8622 z"
       id="path3786"
       inkscape:connector-curvature="0" />
    <path
       style="fill:#000000;fill-opacity:0.09803922;stroke:none"
       d="M 6 12 C 5.5274706 12 5.1681511 12.342051 5.0625 12.78125 C 5.0258332 12.850873 5 12.915549 5 13 L 5 16.5625 C 4.8823236 16.531293 4.7847156 16.5 4.65625 16.5 C 3.9127897 16.5 3.3125 17.059644 3.3125 17.75 C 3.3125 18.440356 3.9127897 19 4.65625 19 C 5.3997103 19 6 18.440356 6 17.75 C 6 17.695568 5.9760171 17.646346 5.96875 17.59375 C 5.975743 17.560327 6 17.535561 6 17.5 L 6 14 L 9 14 L 9 16.5625 C 8.8913288 16.536222 8.7737823 16.5 8.65625 16.5 C 7.9127897 16.5 7.3125 17.059644 7.3125 17.75 C 7.3125 18.440356 7.9127897 19 8.65625 19 C 9.3997103 19 10 18.440356 10 17.75 C 10 17.695568 9.9760171 17.646346 9.96875 17.59375 C 9.975578 17.560327 10 17.535561 10 17.5 L 10 13 C 10 12.91853 9.9557157 12.856974 9.9375 12.78125 C 9.8318489 12.342051 9.4725294 12 9 12 L 6 12 z "
       transform="translate(0,1028.3622)"
       id="path3059" />
    <path
       sodipodi:type="arc"
       style="fill:replacecolour3;fill-opacity:1;stroke:none"
       id="path3001"
       sodipodi:cx="-6.8228297"
       sodipodi:cy="8.2585173"
       sodipodi:rx="1.8228298"
       sodipodi:ry="1.7414824"
       d="m -4.9999999,8.2585173 a 1.8228298,1.7414824 0 1 1 -3.6456597,0 1.8228298,1.7414824 0 1 1 3.6456597,0 z"
       transform="matrix(0.73849673,0,0,0.71777944,9.6847913,1039.1844)" />
    <path
       transform="matrix(0.73849673,0,0,0.71777944,13.692483,1039.1844)"
       d="m -4.9999999,8.2585173 a 1.8228298,1.7414824 0 1 1 -3.6456597,0 1.8228298,1.7414824 0 1 1 3.6456597,0 z"
       sodipodi:ry="1.7414824"
       sodipodi:rx="1.8228298"
       sodipodi:cy="8.2585173"
       sodipodi:cx="-6.8228297"
       id="path3003"
       style="fill:replacecolour3;fill-opacity:1;stroke:none"
       sodipodi:type="arc" />
    <rect
       style="fill:replacecolour3;fill-opacity:1;stroke:none"
       id="rect3005"
       width="1.0000002"
       height="5.5000095"
       x="5"
       y="1039.8622"
       rx="0.50000012"
       ry="0.50000012" />
    <rect
       ry="0.50000012"
       rx="0.4882074"
       y="1039.8622"
       x="9"
       height="5.5000095"
       width="0.99999976"
       id="rect3007-5"
       style="fill:replacecolour3;fill-opacity:1;stroke:none" />
    <rect
       style="fill:replacecolour3;fill-opacity:1;stroke:none"
       id="rect3009"
       width="5"
       height="2.0000091"
       x="5"
       y="1039.3622"
       rx="1"
       ry="0.99999583" />
  </g>
</svg>

<!-- Created with Inkscape (http://www.inkscape.org/) -->
<svg xmlns="http://www.w3.org/2000/svg" viewBox="0 0 24 24">
 <defs>
  <radialGradient r="24" cy="40.5" cx="24" gradientTransform="matrix(0.625,0,0,0.10416663,-3,1044.1435)" gradientUnits="userSpaceOnUse" id="radialGradient3053">
   <stop style="stop-color:#000;stop-opacity:1"/>
   <stop offset="1" style="stop-color:#000;stop-opacity:0.196"/>
  </radialGradient>
 </defs>
 <g transform="translate(0,-1028.3622)">
  <path d="m 12 1045.86 c -4.913 0 -9.264 0.391 -12 1 l 0 3 c 2.736 0.609 7.087 1 12 1 4.913 0 9.264 -0.391 12 -1 l 0 -3 c -2.736 -0.609 -7.087 -1 -12 -1 z" style="fill:url(#radialGradient3053);opacity:0.1;fill-opacity:1;stroke:none"/>
  <rect width="22" height="16" x="1" y="1033.36" rx="2.391" ry="2.5" style="fill:replacecolour2;fill-opacity:1;stroke:none"/>
  <path d="m 3.391 1033.36 c -1.325 0 -2.391 1.115 -2.391 2.5 l 0 1 c 0 -1.385 1.067 -2.5 2.391 -2.5 l 17.217 0 c 1.325 0 2.391 1.115 2.391 2.5 l 0 -1 c 0 -1.385 -1.067 -2.5 -2.391 -2.5 l -17.217 0 z" style="fill:#fff;opacity:0.2;fill-opacity:1;stroke:none"/>
  <path d="m 3.391 1037.36 3.826 0 c 5.261 -0.5 4.304 -6 7.652 -6 l 5.739 0 c 1.325 0 2.391 1.115 2.391 2.5 l 0 13 c 0 1.385 -1.067 2.5 -2.391 2.5 l -17.217 0 c -1.325 0 -2.391 -1.115 -2.391 -2.5 l 0 -7 c 0 -1.5 0.957 -2.5 2.391 -2.5 z" style="fill:replacecolour1;fill-opacity:1;stroke:none"/>
  <path d="m 1 1045.86 0 1 c 0 1.385 1.067 2.5 2.391 2.5 l 17.217 0 c 1.325 0 2.391 -1.115 2.391 -2.5 l 0 -1 c 0 1.385 -1.067 2.5 -2.391 2.5 l -17.217 0 c -1.325 0 -2.391 -1.115 -2.391 -2.5 z" style="fill:#000;opacity:0.15;fill-opacity:1;stroke:none"/>
  <path d="m 6 12 c -0.473 0 -0.832 0.342 -0.938 0.781 c -0.037 0.07 -0.063 0.134 -0.063 0.219 l 0 3.563 c -0.118 -0.031 -0.215 -0.063 -0.344 -0.063 c -0.743 0 -1.344 0.56 -1.344 1.25 c 0 0.69 0.6 1.25 1.344 1.25 c 0.743 0 1.344 -0.56 1.344 -1.25 c 0 -0.054 -0.024 -0.104 -0.031 -0.156 c 0.007 -0.033 0.031 -0.058 0.031 -0.094 l 0 -3.5 l 3 0 l 0 2.563 c -0.109 -0.026 -0.226 -0.063 -0.344 -0.063 c -0.743 0 -1.344 0.56 -1.344 1.25 c 0 0.69 0.6 1.25 1.344 1.25 c 0.743 0 1.344 -0.56 1.344 -1.25 c 0 -0.054 -0.024 -0.104 -0.031 -0.156 c 0.007 -0.033 0.031 -0.058 0.031 -0.094 l 0 -4.5 c 0 -0.081 -0.044 -0.143 -0.063 -0.219 c -0.106 -0.439 -0.465 -0.781 -0.938 -0.781 l -3 0 z" transform="translate(0,1028.3622)" style="fill:#000;fill-opacity:0.098;stroke:none"/>
  <path d="m -5 8.259 a 1.823 1.741 0 1 1 -3.646 0 1.823 1.741 0 1 1 3.646 0 z" transform="matrix(0.73849673,0,0,0.71777944,9.6847913,1039.1844)" style="fill:replacecolour3;fill-opacity:1;stroke:none"/>
  <path transform="matrix(0.73849673,0,0,0.71777944,13.692483,1039.1844)" d="m -5 8.259 a 1.823 1.741 0 1 1 -3.646 0 1.823 1.741 0 1 1 3.646 0 z" style="fill:replacecolour3;fill-opacity:1;stroke:none"/>
  <rect width="1" height="5.5" x="5" y="1039.86" rx="0.5" style="fill:replacecolour3;fill-opacity:1;stroke:none"/>
  <rect ry="0.5" rx="0.488" y="1039.86" x="9" height="5.5" width="1" style="fill:replacecolour3;fill-opacity:1;stroke:none"/>
  <rect width="5" height="2" x="5" y="1039.36" rx="1" style="fill:replacecolour3;fill-opacity:1;stroke:none"/>
 </g>
</svg>
